src/icons/solid/communication/message-send.svg

<svg width="24" height="24" viewBox="0 0 24 24" fill="none" xmlns="http://www.w3.org/2000/svg">
<g clip-path="url(#clip0_4549_540)">
<path d="M22.9283 2.00632C22.8055 1.63765 22.5497 1.33042 22.2018 1.15633C21.8539 0.982235 21.4548 0.951513 21.0864 1.0744L2.46316 7.13697C1.78781 7.36227 1.27618 7.90503 1.08177 8.59117C0.928277 9.14417 0.989673 9.7279 1.27618 10.2195C1.55246 10.7213 2.01293 11.0797 2.56549 11.2333C2.56549 11.2333 2.58595 11.2333 2.59618 11.2333L10.7822 13.1995L12.7571 21.4229C12.9515 22.109 13.4632 22.6518 14.1487 22.8874C14.3739 22.959 14.599 23 14.8241 23C15.7246 23 16.5636 22.4265 16.8604 21.5253L22.9283 2.90751C23.0204 2.61053 23.0204 2.3033 22.9283 2.00632Z" fill="#3C3B44"/>
</g>
<defs>
<clipPath id="clip0_4549_540">
<rect width="24" height="24" fill="white"/>
</clipPath>
</defs>
</svg>

<svg xmlns="http://www.w3.org/2000/svg" width="24" height="24" fill="none" viewBox="0 0 24 24"><g clip-path="url(#a)"><path fill="currentColor" d="M22.928 2.006a1.456 1.456 0 0 0-1.842-.932L2.463 7.137a2.14 2.14 0 0 0-1.381 1.454 2.1 2.1 0 0 0 .194 1.629 2.1 2.1 0 0 0 1.29 1.013h.03l8.186 1.967 1.975 8.223A2.17 2.17 0 0 0 14.824 23c.9 0 1.74-.573 2.036-1.475l6.068-18.617a1.5 1.5 0 0 0 0-.902"/></g><defs><clipPath id="a"><path fill="currentColor" d="M0 0h24v24H0z"/></clipPath></defs></svg>
